public/images/multiplatform/hero/android.svg

<svg width="48" height="48" viewBox="0 0 48 48" fill="none" xmlns="http://www.w3.org/2000/svg">
    <path d="M16.7025 27.1053C15.5775 27.4728 14.9662 28.6728 15.3262 29.7978C15.6262 30.7428 16.5262 31.3278 17.4712 31.2791C17.6512 31.2678 17.835 31.2341 18.0187 31.1778C19.1437 30.8141 19.755 29.6103 19.3912 28.4853C19.0312 27.3603 17.8275 26.7416 16.7025 27.1053Z" fill="white"/>
    <path d="M29.9775 27.1053C28.8525 27.4728 28.2413 28.6728 28.6013 29.7978C28.9013 30.7428 29.8013 31.3278 30.7463 31.2791C30.9263 31.2678 31.11 31.2341 31.2938 31.1778C32.4188 30.8141 33.03 29.6103 32.6663 28.4853C32.3063 27.3603 31.1025 26.7416 29.9775 27.1053Z" fill="white"/>
    <path fill-rule="evenodd" clip-rule="evenodd" d="M40.3425 15.6716L37.4738 21.4091C42.0713 25.2641 45 31.0466 45 37.5003V39.0003H3V37.5003C3 31.0466 5.92873 25.2641 10.5262 21.4091L7.65752 15.6716L10.3425 14.3291L12.99 19.6279C16.1925 17.6479 19.965 16.5003 24 16.5003C28.035 16.5003 31.8075 17.6479 35.01 19.6279L37.6575 14.3291L40.3425 15.6716ZM24 19.5003C14.58 19.5003 6.82877 26.7753 6.06377 36.0003H41.9362C41.1712 26.7753 33.42 19.5003 24 19.5003Z" fill="white"/>
</svg>

<svg xmlns="http://www.w3.org/2000/svg" width="48" height="48" fill="none" viewBox="0 0 48 48">
    <path fill="#fff" d="M16.703 27.105a2.14 2.14 0 0 0 .768 4.174 2.134 2.134 0 0 0 1.92-2.794 2.133 2.133 0 0 0-2.688-1.38M29.978 27.105a2.14 2.14 0 0 0 .768 4.174 2.134 2.134 0 0 0 1.92-2.794 2.133 2.133 0 0 0-2.688-1.38"/>
    <path fill="#fff" fill-rule="evenodd" d="m40.343 15.672-2.87 5.737C42.072 25.264 45 31.047 45 37.5V39H3v-1.5c0-6.453 2.929-12.236 7.526-16.09l-2.868-5.738 2.684-1.343 2.648 5.299A20.9 20.9 0 0 1 24 16.5c4.035 0 7.808 1.148 11.01 3.128l2.648-5.299zM24 19.5c-9.42 0-17.171 7.275-17.936 16.5h35.872C41.171 26.775 33.42 19.5 24 19.5" clip-rule="evenodd"/>
</svg>
